svg/other/thought_line.svg

<?xml version="1.0" encoding="UTF-8"?>
<svg width="24px" height="24px" viewBox="0 0 24 24" version="1.1" xmlns="http://www.w3.org/2000/svg" xmlns:xlink="http://www.w3.org/1999/xlink">
    <title>thought_line</title>
    <g id="Icon" stroke="none" stroke-width="1" fill="none" fill-rule="evenodd">
        <g id="Other" transform="translate(-434.000000, -96.000000)">
            <g id="thought_line" transform="translate(434.000000, 96.000000)">
                <path d="M24,0 L24,24 L0,24 L0,0 L24,0 Z M12.5935,23.2578 L12.5819,23.2595 L12.5109,23.295 L12.4919,23.2987 L12.4767,23.295 L12.4057,23.2595 C12.3958,23.2564 12.387,23.259 12.3821,23.2649 L12.378,23.2758 L12.3609,23.7031 L12.3659,23.7235 L12.3769,23.7357 L12.4805,23.8097 L12.4953,23.8136 L12.5071,23.8097 L12.6107,23.7357 L12.6233,23.7197 L12.6267,23.7031 L12.6096,23.2758 C12.6076,23.2657 12.601,23.2593 12.5935,23.2578 Z M12.8584,23.1453 L12.8445,23.1473 L12.6598,23.2397 L12.6499,23.2499 L12.6472,23.2611 L12.6651,23.6906 L12.6699,23.7034 L12.6784,23.7105 L12.8793,23.8032 C12.8914,23.8069 12.9022,23.803 12.9078,23.7952 L12.9118,23.7812 L12.8777,23.1665 C12.8753,23.1546 12.8674,23.147 12.8584,23.1453 Z M12.143,23.1473 C12.1332,23.1424 12.1222,23.1453 12.1156,23.1526 L12.1099,23.1665 L12.0758,23.7812 C12.0751,23.7927 12.0828,23.8019 12.0926,23.8046 L12.1083,23.8032 L12.3092,23.7105 L12.3186,23.7024 L12.3225,23.6906 L12.3404,23.2611 L12.3372,23.2485 L12.3278,23.2397 L12.143,23.1473 Z" id="MingCute" fill-rule="nonzero"></path>
                <path d="M5,16 C5.74773,16 6.46317,16.2261 7.01421,16.6393 C7.56557,17.0529 8,17.7005 8,18.5 C8,19.2995 7.56557,19.9471 7.01421,20.3607 C6.46317,20.7739 5.74773,21 5,21 C4.25227,21 3.53683,20.7739 2.98579,20.3607 C2.43443,19.9471 2,19.2995 2,18.5 C2,17.7005 2.43443,17.0529 2.98579,16.6393 C3.53683,16.2261 4.25227,16 5,16 Z M5,18 C4.64316,18 4.3586,18.1097 4.18579,18.2393 C4.06256857,18.3317286 4.02058694,18.4103816 4.00665633,18.4583131 L4,18.5 L4,18.5 L4.00665633,18.5416869 C4.02058694,18.5896184 4.06256857,18.6682714 4.18579,18.7607 C4.3586,18.8903 4.64316,19 5,19 C5.35684,19 5.6414,18.8903 5.81421,18.7607 C5.93743143,18.6682714 5.97941306,18.5896184 5.99334367,18.5416869 L6,18.5 L6,18.5 L5.99334367,18.4583131 C5.97941306,18.4103816 5.93743143,18.3317286 5.81421,18.2393 C5.6414,18.1097 5.35684,18 5,18 Z M12.9231,2.88477 C14.4103,2.88477 15.7261,3.61238 16.5362,4.72875 C16.8589,4.65461 17.1945,4.6155 17.5385,4.6155 C20.0025,4.6155 22,6.613 22,9.07704 C22,10.23 21.5617,11.2815 20.8448,12.0726 C20.7859,14.4854 18.8116,16.4233 16.3846,16.4233 C15.731,16.4233 15.109,16.2822 14.5485,16.0289 C13.7866,16.6361 12.8201,17.0002 11.7692,17.0002 C9.93791,17.0002 8.36631,15.8975 7.67848,14.3215 C6.10264,13.6337 5,12.0621 5,10.2309 C5,8.01728 6.61207,6.18022 8.72625,5.82963 C9.34712,4.1121 10.991,2.88477 12.9231,2.88477 Z M12.9231,4.88477 C11.7043,4.88477 10.6907,5.7715 10.4956,6.93503 C10.4202769,7.38438385 10.0526594,7.72094053 9.60836599,7.76479772 L9.46154,7.76933 C8.10207,7.76933 7,8.8714 7,10.2309 C7,11.3402 7.73453,12.2805 8.74604,12.5871 C9.06582,12.684 9.31606,12.9343 9.41298,13.2541 C9.71954,14.2656 10.6599,15.0002 11.7692,15.0002 C12.5156,15.0002 13.1837,14.6692 13.6366,14.1425 C13.9722,13.7522 14.5493,13.6805 14.9703,13.9768 C15.3702,14.2582 15.8566,14.4233 16.3846,14.4233 C17.7441,14.4233 18.8461,13.3212 18.8461,11.9617 C18.8461,11.8908 18.8432,11.8208 18.8374,11.7518 C18.811,11.4375 18.9344,11.1291 19.1705,10.9198 C19.6808,10.4674 20,9.81015 20,9.07704 C20,7.71757 18.8979,6.6155 17.5385,6.6155 C17.1674,6.6155 16.8181,6.69695 16.5051,6.84199 C16.2624,6.95449 15.9847,6.96502 15.7341,6.87122 C15.4835,6.77743 15.281,6.58714 15.1718,6.3429 C14.7866,5.48164 13.9235,4.88477 12.9231,4.88477 Z" id="形状" fill="#09244B"></path>
            </g>
        </g>
    </g>
</svg>

<svg xmlns="http://www.w3.org/2000/svg" width="24" height="24"><g fill="none" fill-rule="evenodd"><path d="M24 0v24H0V0h24ZM12.594 23.258l-.012.002-.071.035-.02.004-.014-.004-.071-.036c-.01-.003-.019 0-.024.006l-.004.01-.017.428.005.02.01.013.104.074.015.004.012-.004.104-.074.012-.016.004-.017-.017-.427c-.002-.01-.009-.017-.016-.018Zm.264-.113-.014.002-.184.093-.01.01-.003.011.018.43.005.012.008.008.201.092c.012.004.023 0 .029-.008l.004-.014-.034-.614c-.003-.012-.01-.02-.02-.022Zm-.715.002a.023.023 0 0 0-.027.006l-.006.014-.034.614c0 .012.007.02.017.024l.015-.002.201-.093.01-.008.003-.011.018-.43-.003-.012-.01-.01-.184-.092Z"/><path fill="#09244B" d="M5 16c.748 0 1.463.226 2.014.64.552.413.986 1.06.986 1.86s-.434 1.447-.986 1.86c-.55.414-1.266.64-2.014.64-.748 0-1.463-.226-2.014-.64C2.434 19.948 2 19.3 2 18.5s.434-1.447.986-1.86C3.536 16.225 4.252 16 5 16Zm0 2c-.357 0-.641.11-.814.24-.123.092-.165.17-.18.218L4 18.5l.007.042c.014.048.056.126.179.219.173.13.457.239.814.239.357 0 .641-.11.814-.24.123-.092.165-.17.18-.218L6 18.5l-.007-.042c-.014-.048-.056-.126-.179-.219C5.641 18.11 5.357 18 5 18Zm7.923-15.115c1.487 0 2.803.727 3.613 1.844a4.462 4.462 0 0 1 4.309 7.344 4.462 4.462 0 0 1-6.296 3.956 4.462 4.462 0 0 1-6.87-1.707A4.462 4.462 0 0 1 8.725 5.83a4.462 4.462 0 0 1 4.197-2.945Zm0 2a2.462 2.462 0 0 0-2.427 2.05 1 1 0 0 1-.888.83l-.146.004a2.462 2.462 0 0 0-.716 4.818 1 1 0 0 1 .667.667 2.463 2.463 0 0 0 4.224.889 1 1 0 0 1 1.333-.166 2.462 2.462 0 0 0 3.867-2.225 1 1 0 0 1 .333-.832 2.462 2.462 0 0 0-2.665-4.078 1 1 0 0 1-1.333-.5 2.462 2.462 0 0 0-2.249-1.457Z"/></g></svg>
